X:1
T:Lars Pngs marsch
C:Lars Png
S:Omtyckta Sknska Allspelsltar
R:Marsch
Z:Patrik Mnsson, 4/7 2008
O:Skne
M: 2/4
L: 1/16
Q:1/4=120
K:D
A2 |: d2dd d2d2-| f2f2 d3f| a2a2 b2a2|a4 e2g2| f2(3fgf e2(3efe| d2d2 c3d| e2ee e2e2|[1 A6 z2 :|[2 A6 a2 |]
|: a2f2 g2e2| f2d2 A3A|d2d2 e2e2| a6 A2| d3d e2g2| f2a2 g3-g/2g/2|f2d2 e2c2|[1 d6 a2:|[2 d6 z2 |]
